img_num/1_13.svg

<svg xmlns="http://www.w3.org/2000/svg" viewBox="0 0 365 290"><title>Untitled-4</title><g id="Layer_4" data-name="Layer 4"><path d="M122.65,125.07H67V103.31h55.62V68.24h24.18V223H122.65Z"/><path d="M181.89,68.24H275v42.81L181.89,151v-21l82.23-35.07V92.43H181.89ZM298,188C298,226.4,271.85,252,232.68,252c-16.93,0-37.24-5.07-50.79-12.81V213.34h2.42c12.82,7.26,32.16,12.09,48.37,12.09,31.19,0,52-15.23,52-38.21,0-14.75-8.46-24.66-21-24.66-8,0-24.18,3.38-40.63,8.46L181.89,188V165.46L223,148.53c16-4.59,32.17-7.74,40.63-7.74C284.19,140.79,298,159.66,298,188Z"/></g></svg>

<?xml version="1.0" encoding="utf-8"?>
<!-- Generator: Adobe Illustrator 23.0.4, SVG Export Plug-In . SVG Version: 6.00 Build 0)  -->
<svg version="1.1" id="Layer_1" xmlns="http://www.w3.org/2000/svg" xmlns:xlink="http://www.w3.org/1999/xlink" x="0px" y="0px"
	 viewBox="0 0 365 290" style="enable-background:new 0 0 365 290;" xml:space="preserve">
<style type="text/css">
	.st0{stroke:#000000;stroke-width:5;stroke-miterlimit:10;}
</style>
<title>Untitled-4</title>
<g id="Layer_4">
	<path class="st0" d="M122.7,125.1H67v-21.8h55.6V68.2h24.2V223h-24.1V125.1z"/>
	<path class="st0" d="M181.9,68.2H275v42.8L181.9,151v-21l82.2-35.1v-2.5h-82.2V68.2z M298,188c0,38.4-26.1,64-65.3,64
		c-16.9,0-37.2-5.1-50.8-12.8v-25.9h2.4c12.8,7.3,32.2,12.1,48.4,12.1c31.2,0,52-15.2,52-38.2c0-14.8-8.5-24.7-21-24.7
		c-8,0-24.2,3.4-40.6,8.5l-41.2,17v-22.5l41.1-16.9c16-4.6,32.2-7.7,40.6-7.7C284.2,140.8,298,159.7,298,188z"/>
</g>
</svg>
